symbols/web/camera_enhance/materialsymbolsoutlined/camera_enhance_wght700_24px.svg

<svg xmlns="http://www.w3.org/2000/svg" height="24" width="24"><path d="M12 17.5q1.875 0 3.188-1.312Q16.5 14.875 16.5 13q0-1.875-1.312-3.188Q13.875 8.5 12 8.5q-1.875 0-3.188 1.312Q7.5 11.125 7.5 13q0 1.875 1.312 3.188Q10.125 17.5 12 17.5Zm0-1-1.1-2.4L8.5 13l2.4-1.1L12 9.5l1.1 2.4 2.4 1.1-2.4 1.1Zm-7.7 5.35q-1.325 0-2.238-.912-.912-.913-.912-2.238V7.3q0-1.325.912-2.238.913-.912 2.238-.912h2.65l2.2-2.375h5.7l2.2 2.375h2.65q1.325 0 2.238.912.912.913.912 2.238v11.4q0 1.325-.912 2.238-.913.912-2.238.912Zm15.4-3.15V7.3h-4.05l-2.175-2.375H10.55L8.35 7.3H4.3v11.4ZM12 13Z"/></svg>

<svg xmlns="http://www.w3.org/2000/svg" height="24" width="24"><path d="M12 17.5Q13.875 17.5 15.188 16.188Q16.5 14.875 16.5 13Q16.5 11.125 15.188 9.812Q13.875 8.5 12 8.5Q10.125 8.5 8.812 9.812Q7.5 11.125 7.5 13Q7.5 14.875 8.812 16.188Q10.125 17.5 12 17.5ZM12 16.5 10.9 14.1 8.5 13 10.9 11.9 12 9.5 13.1 11.9 15.5 13 13.1 14.1ZM4.3 21.85Q2.975 21.85 2.062 20.938Q1.15 20.025 1.15 18.7V7.3Q1.15 5.975 2.062 5.062Q2.975 4.15 4.3 4.15H6.95L9.15 1.775H14.85L17.05 4.15H19.7Q21.025 4.15 21.938 5.062Q22.85 5.975 22.85 7.3V18.7Q22.85 20.025 21.938 20.938Q21.025 21.85 19.7 21.85ZM19.7 18.7Q19.7 18.7 19.7 18.7Q19.7 18.7 19.7 18.7V7.3Q19.7 7.3 19.7 7.3Q19.7 7.3 19.7 7.3H15.65L13.475 4.925H10.55L8.35 7.3H4.3Q4.3 7.3 4.3 7.3Q4.3 7.3 4.3 7.3V18.7Q4.3 18.7 4.3 18.7Q4.3 18.7 4.3 18.7ZM12 13Q12 13 12 13Q12 13 12 13Q12 13 12 13Q12 13 12 13Q12 13 12 13Q12 13 12 13Q12 13 12 13Q12 13 12 13Z"/></svg>
